packages/match-logos/mono/svg/handy.svg

<svg fill="none" height="48" viewBox="0 0 68 48" width="68" xmlns="http://www.w3.org/2000/svg" xmlns:xlink="http://www.w3.org/1999/xlink"><clipPath id="a"><path d="m0 0h67.2v48h-67.2z"/></clipPath><g clip-path="url(#a)"><path d="m47.36 13.92-4.96 1.04v14.4l4.88-1.04c4.16-.88 6.96-4.24 6.96-8.64 0-4.48-2.8-6.64-6.88-5.76zm3.6 6.4c0 2.88-1.6 4.56-3.68 4.96l-1.68.4v-8.32l1.68-.4c2.08-.48 3.68.48 3.68 3.36zm-20.4-2.88-3.36.64v14.4l3.2-.64v-9.12l6.24 7.84 3.36-.64v-14.4l-3.2.64v9.12zm-17.52 10.96c0 4.48 2.72 6.64 6.88 5.76l4.96-1.04v-14.4l-4.88 1.04c-4.24.8-6.96 4.16-6.96 8.64zm6.88-5.68 1.68-.4v8.32l-1.68.4c-2.08.48-3.84-.48-3.84-3.36s1.76-4.56 3.84-4.96zm44.08-3.68c0 1.92-.8 3.04-2.4 3.44-1.6.32-2.4-.4-2.4-2.32v-8.8l-3.2.64v8.88c0 3.76 2.4 5.2 5.52 4.56.96-.24 1.68-.56 2.48-1.12v3.6h.16c0 1.6-1.12 3.52-3.2 4l-60.96 12.88v3.2l61.84-13.2c3.44-.72 5.36-3.76 5.36-6.96v-18.24l-3.2.64zm-60.8 9.92c0-1.92.8-3.04 2.4-3.44 1.6-.32 2.4.4 2.4 2.32v8.8l3.2-.64v-8.96c0-3.76-2.4-5.2-5.52-4.56-.96.24-1.68.64-2.48 1.12v-3.2c0-1.92 1.04-3.76 3.12-4.16l60.88-13.04v-3.2l-61.84 13.2c-3.44.72-5.36 3.76-5.36 6.96v18.24l3.2-.64z" fill="#1f304c"/></g></svg>

<svg width="68" height="48" viewBox="0 0 68 48" fill="none" xmlns="http://www.w3.org/2000/svg">
<g clip-path="url(#clip0)">
<path d="M47.36 13.92L42.4 14.96V29.36L47.28 28.32C51.44 27.44 54.24 24.08 54.24 19.68C54.24 15.2 51.44 13.04 47.36 13.92ZM50.96 20.32C50.96 23.2 49.36 24.88 47.28 25.28L45.6 25.68V17.36L47.28 16.96C49.36 16.48 50.96 17.44 50.96 20.32ZM30.56 17.44L27.2 18.08V32.48L30.4 31.84V22.72L36.64 30.56L40 29.92V15.52L36.8 16.16V25.28L30.56 17.44ZM13.04 28.4C13.04 32.88 15.76 35.04 19.92 34.16L24.88 33.12V18.72L20 19.76C15.76 20.56 13.04 23.92 13.04 28.4ZM19.92 22.72L21.6 22.32V30.64L19.92 31.04C17.84 31.52 16.08 30.56 16.08 27.68C16.08 24.8 17.84 23.12 19.92 22.72ZM64 19.04C64 20.96 63.2 22.08 61.6 22.48C60 22.8 59.2 22.08 59.2 20.16V11.36L56 12V20.88C56 24.64 58.4 26.08 61.52 25.44C62.48 25.2 63.2 24.88 64 24.32V27.92H64.16C64.16 29.52 63.04 31.44 60.96 31.92L0 44.8V48L61.84 34.8C65.28 34.08 67.2 31.04 67.2 27.84V9.6L64 10.24V19.04ZM3.2 28.96C3.2 27.04 4 25.92 5.6 25.52C7.2 25.2 8 25.92 8 27.84V36.64L11.2 36V27.04C11.2 23.28 8.8 21.84 5.68 22.48C4.72 22.72 4 23.12 3.2 23.6V20.4C3.2 18.48 4.24 16.64 6.32 16.24L67.2 3.2V0L5.36 13.2C1.92 13.92 0 16.96 0 20.16V38.4L3.2 37.76V28.96Z" fill="#1F304C"/>
</g>
<defs>
<clipPath id="clip0">
<rect width="67.2" height="48" fill="white"/>
</clipPath>
</defs>
</svg>
